**kern	**kern	**fb
*part1	*part1	*part1
*staff2	*staff1	*
*I"Piano	*	*
*clefF4	*clefG2	*
*k[f#c#]	*k[f#c#]	*
=1	=1	=1
.	8qqa/	6
8EL	4g	.
8C#	.	.
8DJ	8f#	.
=	=	=
8AL	8f#L	6 4
8AA	8e	5 3
8C#J	8aJ	6
=	=	=
.	8qqg/	5
8DL	4f#	.
8E	.	.
8F#J	8dd	6
=	=	=
.	8qqcc#/	.
8GL	4b	.
8B	.	.
8F#J	8a	6
=	=	=
.	8qqa/	6 4 3
8EL	4.g	.
8C#	.	6 5
8AAJ	.	7 5
=	=	=
8DL	4f#	5
8F#	.	.
8AJ	8r	.
=	=	=
4.BB	16r	.
.	16ddLL	.
.	16cc#	.
.	16bJJ	.
.	16aLL	.
.	16g#XJJ	.
=	=	=
8AAL	8cc#L	.
8A	8f#J	.
8G#XJ	16bLL	.
.	16cc#JJ	.
=	=	=
*-	*-	*-
!!!system-decoration: {(s1,s2)}
